X:272
T: Jiawu zhanzheng
N: C1769
O: China,Shandong Weihai
S: III, 349, 1)]
R: Xiaodiao]
M: 2/4
L: 1/16
K: D
A2A2F2A2 | d3BB2A2 | F2d2B2A2 | F2E2A4 |
E3FA4 | A2d2B2A2 | F2E2A2F2 | E4z4 |
E2F2A4 | F2d2B2A2 | A2F2A2F2 | E2D2E4 |
B,2D2B,2D2 | E4z4 |
F4A4 | B2e2d2B2 | A8

@@@ Tune index: 6827
